X: 27127
T: Miss McDonald
R: reel
M: 4/4
K: Gmajor
|:BG~G2 BdcA|BGBd g2fg|aA~A2 ABcA|1 Bdef gedc:|2 Bdef gedB||
|:~G3D EDB,D|~G3D B,G,B,D|~G3D EDB,D|1 egdB BAAB:|2 egdB BA~A2||
gdBd ~g3f|edef gdBd|gdBd ~g3f|edef g2gf|
gdBd gdBd|~g3f gdBd|~g3a gfed|egfa g3d||
egdB cBAB|GB~B2 GABd|egdB cBAB|GEDE G2Bd|
egdB cBAB|GB~B2 GABd|~e3g ~f3e|dfaf gedc||

